X:1
T:Mining Camp Blues
M:4/4
L:1/8
K:Eb
 BB =Bc G E3| AA =ABB/2-_A/2 A _G2| E8-| E8| AA A=A B E3| _AA A=AB/2-_A/2 A _G2|\
 E8-| E8| BB BB B B3| GG A=AB/2-_A/2 A _G2| E8-| E8|
